packages/astro-components-stencil/src/icons/file-copy.svg

<svg xmlns="http://www.w3.org/2000/svg" viewBox="0 0 24 24"><g xmlns="http://www.w3.org/2000/svg" id="file-copy" fill-rule="nonzero">
            <path d="M15 1H4c-1.1 0-2 .9-2 2v13c0 .55.45 1 1 1s1-.45 1-1V4c0-.55.45-1 1-1h10c.55 0 1-.45 1-1s-.45-1-1-1zm.59 4.59l4.83 4.83c.37.37.58.88.58 1.41V21c0 1.1-.9 2-2 2H7.99C6.89 23 6 22.1 6 21l.01-14c0-1.1.89-2 1.99-2h6.17c.53 0 1.04.21 1.42.59zM15 12h4.5L14 6.5V11c0 .55.45 1 1 1z"/>
        </g></svg>

<svg width="24" height="24" viewBox="0 0 24 24" fill="none" xmlns="http://www.w3.org/2000/svg">
<path fill-rule="evenodd" clip-rule="evenodd" d="M15 1H4C2.9 1 2 1.9 2 3V16C2 16.55 2.45 17 3 17C3.55 17 4 16.55 4 16V4C4 3.45 4.45 3 5 3H15C15.55 3 16 2.55 16 2C16 1.45 15.55 1 15 1ZM15.59 5.59L20.42 10.42C20.79 10.79 21 11.3 21 11.83V21C21 22.1 20.1 23 19 23H7.99C6.89 23 6 22.1 6 21L6.01 7C6.01 5.9 6.9 5 8 5H14.17C14.7 5 15.21 5.21 15.59 5.59ZM19.5 12H15C14.45 12 14 11.55 14 11V6.5L19.5 12Z" fill="black"/>
</svg>
